X:1
T:Sean Manning's Polka
C:Marcus Turner
N:Written 2006
O:New Zealand
M:2/4
L:1/16
Q:1/4=120
K:Am  
V:1
"Am"efed cdec|"E7"d2B2 "Am"c2A2|"Am"efed cBcd|"E7".e2.a2 "Am"a2cd|
"Am"efed cdec|"E7"d2B2 "Am"cBcd|"Am"e2A2 "Dm"B3A|[1 "E7".^G2.A2 "Am"A2cd:|[2 "E7".^G2.A2 "Am"A2AB|
|:"Am"c2A2 A2Bc|"E7"d2B2 "Am"c3d|"Am"efed cBcd|"E7".e2.a2 "Am"a2AB|
"Am"c2A2 A2Bc|"E7"d2B2 "Am"cBcd|"Am"e2A2 "Dm"B3A|[1 "E7".^G2.A2 "Am"A2AB:|[2 "E7".^G2.A2 "Am"A4||




